public/logos/discord.svg

<svg width="96" height="76" viewBox="0 0 96 76" fill="none"
  xmlns="http://www.w3.org/2000/svg">
  <path d="M62.0872 49.0894C58.0144 49.0894 54.6566 45.3514 54.6566 40.7582C54.6566 36.165 57.9465 32.427 62.0872 32.427C66.2279 32.427 69.5812 36.2012 69.5178 40.7582C69.4545 45.3152 66.2596 49.0894 62.0872 49.0894ZM34.6184 49.0894C30.5455 49.0894 27.1877 45.3514 27.1877 40.7582C27.1877 36.165 30.4777 32.427 34.6184 32.427C38.7591 32.427 42.1123 36.2012 42.049 40.7582C41.9856 45.3152 38.759 49.0894 34.6229 49.0894H34.6184ZM76.9711 11.3344C71.6119 8.87474 65.9563 7.12085 60.1458 6.11667C60.093 6.10618 60.0382 6.1128 59.9893 6.13559C59.9405 6.15837 59.9002 6.19613 59.8743 6.24337C59.104 7.64177 58.4047 9.07812 57.7791 10.547C51.5157 9.59573 45.1446 9.59573 38.8812 10.547C38.2519 9.07442 37.5419 7.63771 36.7543 6.24337C36.7269 6.19752 36.6864 6.16092 36.638 6.13833C36.5896 6.11575 36.5355 6.1082 36.4828 6.11667C30.6718 7.11876 25.0159 8.87273 19.6576 11.3344C19.6125 11.3542 19.5745 11.3873 19.5489 11.4294C8.83292 27.4401 5.89597 43.0571 7.33051 58.493C7.33462 58.5311 7.34636 58.568 7.36502 58.6014C7.38368 58.6348 7.40888 58.6641 7.43912 58.6876C13.6785 63.31 20.6578 66.8387 28.0792 69.1231C28.1314 69.1387 28.1872 69.1379 28.2389 69.1209C28.2907 69.104 28.336 69.0716 28.3689 69.0281C29.9626 66.8581 31.3747 64.5605 32.591 62.1586C32.6072 62.1256 32.6163 62.0896 32.6177 62.0528C32.6191 62.0161 32.6128 61.9795 32.5991 61.9454C32.5855 61.9112 32.5648 61.8803 32.5385 61.8547C32.5121 61.8291 32.4807 61.8092 32.4462 61.7965C30.2189 60.9442 28.0626 59.9168 25.9976 58.7238C25.9577 58.7022 25.924 58.6708 25.8996 58.6325C25.8752 58.5942 25.861 58.5504 25.8583 58.5051C25.8556 58.4598 25.8645 58.4146 25.8841 58.3737C25.9037 58.3328 25.9334 58.2975 25.9704 58.2713C26.4229 57.9455 26.8393 57.6106 27.2511 57.2667C27.2877 57.2361 27.3322 57.2165 27.3794 57.2101C27.4266 57.2037 27.4747 57.2108 27.5181 57.2305C41.0444 63.4076 55.6929 63.4076 69.0608 57.2305C69.1043 57.2092 69.153 57.2009 69.2012 57.2066C69.2493 57.2122 69.2948 57.2315 69.3323 57.2622C69.7441 57.6016 70.1785 57.9455 70.6175 58.2668C70.6547 58.2926 70.6847 58.3276 70.7047 58.3682C70.7247 58.4089 70.734 58.454 70.7317 58.4993C70.7295 58.5446 70.7157 58.5885 70.6918 58.627C70.6678 58.6655 70.6345 58.6973 70.5949 58.7193C68.5423 59.9159 66.3927 60.9377 64.1689 61.7739C64.1342 61.787 64.1027 61.8073 64.0764 61.8335C64.0501 61.8596 64.0296 61.8911 64.0164 61.9257C64.0031 61.9603 63.9974 61.9973 63.9995 62.0344C64.0016 62.0714 64.0115 62.1076 64.0286 62.1405C65.2631 64.5302 66.6713 66.8262 68.2417 69.0099C68.2735 69.0548 68.3185 69.0885 68.3705 69.1063C68.4224 69.1242 68.4787 69.1253 68.5313 69.1095C75.9654 66.8324 82.9564 63.3032 89.2031 58.6741C89.2336 58.6519 89.2591 58.6234 89.2778 58.5907C89.2965 58.5579 89.3081 58.5215 89.3117 58.484C91.0359 40.6541 86.4245 25.1639 77.0933 11.4204C77.0654 11.3788 77.0237 11.3483 76.9756 11.3344H76.9711Z" fill="white"/>
</svg>

<svg version="1.2" xmlns="http://www.w3.org/2000/svg" viewBox="7 6.11 82.7 63" width="82.7" height="63"><style></style><path
        d="m77 11.3c-5.4-2.4-11-4.2-16.9-5.2q0 0-0.1 0-0.1 0.1-0.1 0.1-1.2 2.1-2.1 4.3c-6.3-0.9-12.7-0.9-18.9 0q-1-2.2-2.1-4.3-0.1 0-0.2-0.1 0 0-0.1 0c-5.8 1-11.5 2.8-16.8 5.2q-0.1 0.1-0.2 0.1c-10.7 16-13.6 31.7-12.2 47.1q0 0.1 0.1 0.1 0 0.1 0 0.1c6.3 4.6 13.3 8.1 20.7 10.4q0.1 0 0.1 0 0.1 0 0.2-0.1 2.4-3.2 4.2-6.8 0-0.1 0-0.1 0-0.1 0-0.2 0 0-0.1 0 0-0.1-0.1-0.1-3.3-1.3-6.4-3.1-0.1 0-0.1-0.1 0 0 0-0.1 0-0.1 0-0.1 0-0.1 0.1-0.1 0.6-0.5 1.3-1 0-0.1 0.1-0.1 0.1 0 0.1 0c13.5 6.2 28.2 6.2 41.6 0q0 0 0.1 0 0.1 0 0.1 0.1 0.7 0.5 1.3 1 0.1 0 0.1 0.1 0 0 0 0.1 0 0.1 0 0.1 0 0.1-0.1 0.1-3.1 1.8-6.4 3.1-0.1 0-0.1 0-0.1 0.1-0.1 0.1 0 0.1 0 0.1 0 0.1 0 0.1 1.9 3.6 4.2 6.9 0.1 0.1 0.2 0.1 0.1 0 0.1 0c7.5-2.3 14.5-5.8 20.7-10.4q0-0.1 0.1-0.1 0-0.1 0-0.1c1.7-17.8-2.9-33.3-12.2-47.1q-0.1 0-0.1-0.1zm-42.4 37.8c-4.1 0-7.4-3.7-7.4-8.3 0-4.6 3.3-8.4 7.4-8.4 4.2 0 7.5 3.8 7.5 8.4-0.1 4.5-3.3 8.3-7.5 8.3zm27.5 0c-4.1 0-7.4-3.7-7.4-8.3 0-4.6 3.3-8.4 7.4-8.4 4.1 0 7.5 3.8 7.4 8.4 0 4.5-3.2 8.3-7.4 8.3z"/></svg>
